!!!OTL: Captain Wedderburn's Courtship
!!!ONM: 3.
**kern
*clefG2
*k[f#c#]
*D:
*M4/4
*MM80
{4f#
=1
4f#
4d
4f#
4a
=2
4dd
4dd
4f#}
{4a
=3
4.b
8b
4e
4e
=4
2.d}
{8a
8a
=5
4f#
4d
4f#
4a
=6
2dd
4b}
{(8cc#
8dd)
=7
4.ee
8cc#
4a
4a
=8
2.a}
{4a
=9
4f#
4d
4f#
4a
=10
(4dd
4ee)}
{4dd
8f#
8f#
=11
4g
4g
4dd
(8cc#
8b)
=12
2.a}
{8a
8a
=13
4d
4d
4f#
4a
=14
4dd
4dd
4f#}
{4a
=15
4b
4b
4e
8e
8e
=16
2.d}
==
*-
!!!CNT: Folksongs of Maritime Canada
!!!MRD: 1928///-1932///
!!!OCL: Helen Creighton
!!!YOR: Songs and Ballads from Nova Scotia
!!!PPR: J.M. Dent & Sons, Limited
!!!PPP: Toronto, Canada
!!!PDT: 1932///
!!!reprint: Dover Publications, 1992: ISBN 0-486-21703-5
!!!ENC1: Craig Stuart Sapp (music and bibliographic data)                       
!!!ENC2: Marcus Pearce (phrase markings and key designations)                   
!!!ENC3: Darrell Conklin (phrase markings and key designations)   
!!!END: 2002/04/10/
!!!EEV: 2004/06/05
!!!MPN: Mr. Richard Hartlan
!!!PPG: 6
!!!EFL: 3/152
!!!ARE: Canada; Nova Scotia
!!!verses: 7
!!!VTS: 2636633116
